projects/vfh1/img/icons/alert-triangle.svg

<svg width="16" height="16" viewBox="0 0 16 16" fill="none" xmlns="http://www.w3.org/2000/svg">
<path fill-rule="evenodd" clip-rule="evenodd" d="M7.018 1.52188C7.31753 1.35324 7.65546 1.26465 7.9992 1.26465C8.34294 1.26465 8.68087 1.35324 8.9804 1.52188C9.27992 1.69051 9.53093 1.9335 9.7092 2.22739L9.71112 2.23056L15.3578 11.6572L15.3632 11.6664C15.5378 11.9689 15.6302 12.3117 15.6312 12.661C15.6322 13.0102 15.5417 13.3536 15.3688 13.657C15.1958 13.9604 14.9465 14.2132 14.6455 14.3903C14.3445 14.5674 14.0024 14.6626 13.6532 14.6664L13.6459 14.6665L2.34521 14.6665C1.996 14.6626 1.65389 14.5674 1.35291 14.3903C1.05193 14.2132 0.802568 13.9604 0.629633 13.657C0.456697 13.3536 0.366218 13.0102 0.367195 12.661C0.368173 12.3117 0.460575 11.9689 0.635206 11.6664L0.640622 11.6572L6.28729 2.23056L6.85919 2.57314L6.2892 2.22739C6.46747 1.9335 6.71848 1.69051 7.018 1.52188ZM7.43001 2.91757L1.78766 12.337C1.73087 12.4369 1.70085 12.5498 1.70052 12.6647C1.7002 12.7811 1.73036 12.8956 1.788 12.9967C1.84565 13.0978 1.92877 13.1821 2.0291 13.2411C2.12855 13.2997 2.24146 13.3313 2.3568 13.3331H13.6416C13.7569 13.3313 13.8699 13.2997 13.9693 13.2411C14.0696 13.1821 14.1528 13.0978 14.2104 12.9967C14.268 12.8956 14.2982 12.7811 14.2979 12.6647C14.2976 12.5498 14.2675 12.4369 14.2108 12.3371L8.5692 2.9189C8.56893 2.91845 8.56866 2.91801 8.56839 2.91757C8.50902 2.8202 8.42566 2.73968 8.32626 2.68372C8.22642 2.62751 8.11378 2.59798 7.9992 2.59798C7.88462 2.59798 7.77198 2.62751 7.67213 2.68372C7.57274 2.73968 7.48938 2.8202 7.43001 2.91757Z" fill="#42474D"/>
<path fill-rule="evenodd" clip-rule="evenodd" d="M7.33398 11.3332C7.33398 10.965 7.63246 10.6665 8.00065 10.6665H8.00732C8.37551 10.6665 8.67398 10.965 8.67398 11.3332C8.67398 11.7014 8.37551 11.9998 8.00732 11.9998H8.00065C7.63246 11.9998 7.33398 11.7014 7.33398 11.3332Z" fill="#42474D"/>
<path fill-rule="evenodd" clip-rule="evenodd" d="M8.00065 5.3335C8.36884 5.3335 8.66732 5.63197 8.66732 6.00016V8.66683C8.66732 9.03502 8.36884 9.3335 8.00065 9.3335C7.63246 9.3335 7.33398 9.03502 7.33398 8.66683V6.00016C7.33398 5.63197 7.63246 5.3335 8.00065 5.3335Z" fill="#42474D"/>
</svg>

<svg width="16" height="16" fill="none" xmlns="http://www.w3.org/2000/svg"><path fill-rule="evenodd" clip-rule="evenodd" d="M7.018 1.522a2 2 0 012.691.705l.002.004 5.647 9.426.005.01a2 2 0 01-1.71 3H2.346a2 2 0 01-1.71-3l.005-.01 5.646-9.426.572.342-.57-.346a2 2 0 01.729-.705zm.412 1.396l-5.642 9.419a.667.667 0 00.569.996h11.285a.666.666 0 00.569-.996L8.569 2.92v-.001a.667.667 0 00-1.139 0z" fill="#42474D"/><path fill-rule="evenodd" clip-rule="evenodd" d="M7.334 11.333c0-.368.298-.667.667-.667h.006a.667.667 0 010 1.334h-.006a.667.667 0 01-.667-.667zm.666-6c.369 0 .667.299.667.667v2.667a.667.667 0 01-1.333 0V6c0-.368.298-.667.667-.667z" fill="#42474D"/></svg>
